assets/icons/24px/outline/folder-cross-24px.svg

<svg width="24" height="24" viewBox="0 0 24 24" fill="none" xmlns="http://www.w3.org/2000/svg">
<path d="M21.5 11.5V11C21.5 9.11438 21.5 8.17157 20.9142 7.58579C20.3284 7 19.3856 7 17.5 7H17C16.0186 7 15.5279 7 15.1056 6.78885C14.6833 6.57771 14.3889 6.18514 13.8 5.4L13.2 4.6C12.6111 3.81486 12.3167 3.42229 11.8944 3.21115C11.4721 3 10.9814 3 10 3H7C5.11438 3 4.17157 3 3.58579 3.58579C3 4.17157 3 5.11438 3 7L3 17C3 18.8856 3 19.8284 3.58579 20.4142C4.17157 21 5.11438 21 7 21H11" stroke="white" stroke-width="2" stroke-linecap="round"/>
<path d="M16.0001 20.5L21 15.5001M16.0001 15.5001L21 20.5" stroke="white" stroke-width="2" stroke-linecap="round" stroke-linejoin="round"/>
<path d="M18 7L3.5 7" stroke="white" stroke-width="2"/>
</svg>

<svg width="24" height="24" fill="none" xmlns="http://www.w3.org/2000/svg"><path d="M21.5 11.5V11c0-1.886 0-2.828-.586-3.414C20.328 7 19.386 7 17.5 7H17c-.981 0-1.472 0-1.894-.211-.423-.211-.717-.604-1.306-1.389l-.6-.8c-.589-.785-.883-1.178-1.306-1.389C11.472 3 10.981 3 10 3H7c-1.886 0-2.828 0-3.414.586C3 4.172 3 5.114 3 7v10c0 1.886 0 2.828.586 3.414C4.172 21 5.114 21 7 21h4" stroke="#fff" stroke-width="2" stroke-linecap="round"/><path d="M16 20.5l5-5m-5 0l5 5" stroke="#fff" stroke-width="2" stroke-linecap="round" stroke-linejoin="round"/><path d="M18 7H3.5" stroke="#fff" stroke-width="2"/></svg>
